assets/images/MCCGroupIcons/MCC-Hotel.svg

<svg xmlns="http://www.w3.org/2000/svg" viewBox="0 0 40 40"><style type="text/css">.st0{fill-rule:evenodd;clip-rule:evenodd}</style><path fill-rule="evenodd" d="M1 8C0.447715 8 0 8.44772 0 9V22V24V27C0 27.5523 0.447715 28 1 28H3C3.55228 28 4 28.4477 4 29V35C4 35.5523 4.44772 36 5 36H7C7.55228 36 8 35.5523 8 35V29C8 28.4477 8.44772 28 9 28H31C31.5523 28 32 28.4477 32 29V35C32 35.5523 32.4477 36 33 36H35C35.5523 36 36 35.5523 36 35V29C36 28.4477 36.4477 28 37 28H39C39.5523 28 40 27.5523 40 27V23V18C40 14.6863 37.3137 12 34 12H23.0552C21.2514 12 19.6707 13.2073 19.1961 14.9475L17.2727 22H5C4.44772 22 4 21.5523 4 21V9C4 8.44772 3.55228 8 3 8H1ZM16 15C16 17.7614 13.7614 20 11 20C8.23858 20 6 17.7614 6 15C6 12.2386 8.23858 10 11 10C13.7614 10 16 12.2386 16 15Z" class="st0" clip-rule="evenodd"/></svg>

<svg xmlns="http://www.w3.org/2000/svg" viewBox="0 0 40 40"><path d="M1 8a1 1 0 0 0-1 1v18a1 1 0 0 0 1 1h2a1 1 0 0 1 1 1v6a1 1 0 0 0 1 1h2a1 1 0 0 0 1-1v-6a1 1 0 0 1 1-1h22a1 1 0 0 1 1 1v6a1 1 0 0 0 1 1h2a1 1 0 0 0 1-1v-6a1 1 0 0 1 1-1h2a1 1 0 0 0 1-1v-9a6 6 0 0 0-6-6H23.055a4 4 0 0 0-3.859 2.948L17.273 22H5a1 1 0 0 1-1-1V9a1 1 0 0 0-1-1zm15 7a5 5 0 1 1-10 0 5 5 0 0 1 10 0" style="fill-rule:evenodd;clip-rule:evenodd"/></svg>
